icons/linear-ele-arrow-chevron-up.svg

<svg xmlns="http://www.w3.org/2000/svg" width="32px" height="32px" viewBox="0 0 32 32" version="1.1">
    <title>linear-ele-arrow-chevron-up</title>
    <g id="linear-ele-arrow-chevron-up" stroke-width="1" fill-rule="evenodd">
        <path d="M15.2928932,9.29289322 C15.6834175,8.90236893 16.3165825,8.90236893 16.7071068,9.29289322 L26.7071068,19.2928932 C27.0976311,19.6834175 27.0976311,20.3165825 26.7071068,20.7071068 C26.3165825,21.0976311 25.6834175,21.0976311 25.2928932,20.7071068 L15.999,11.414 L15.9852445,11.4289691 L15.6567896,11.757424 C15.5923126,11.821901 15.5225208,11.8916927 15.4467429,11.9674706 L15.2007794,12.2134342 C15.1123578,12.3018558 15.0172788,12.3969348 14.9148709,12.4993427 L14.4023,13.0119136 L14.2071068,13.2071068 C14.142292,13.2719216 14.0789175,13.3352961 14.016901,13.3973125 L13.6604401,13.7537734 C13.546613,13.8676006 13.4375595,13.9766541 13.3326212,14.0815924 L12.8859545,14.528259 C12.7918804,14.6223331 12.7009339,14.7132796 12.6124566,14.801757 L11.9848846,15.429329 C11.8645142,15.5496994 11.7459957,15.6682179 11.6271068,15.7871068 L11.2671068,16.1471068 C11.2264895,16.1877241 11.1855841,16.2286294 11.1443084,16.2699051 L10.6259545,16.788259 C10.5348434,16.8793702 10.4409339,16.9732796 10.3435677,17.0706459 L9.53821789,17.8759957 C9.24130431,18.1729093 8.91249773,18.5017158 8.54151007,18.8727035 L7.00595452,20.408259 L6.70710678,20.7071068 C6.31658249,21.0976311 5.68341751,21.0976311 5.29289322,20.7071068 C4.90236893,20.3165825 4.90236893,19.6834175 5.29289322,19.2928932 C5.59844877,18.9873377 5.88363396,18.7021525 6.150671,18.4351154 L7.12729651,17.4584899 C7.49828417,17.0875023 7.82709075,16.7586957 8.12400433,16.4617821 L8.92935412,15.6564323 C9.02672038,15.5590661 9.12062984,15.4651566 9.21174096,15.3740455 L9.73009486,14.8556916 C9.77137059,14.8144159 9.81227593,14.7735105 9.85289322,14.7328932 L10.2128932,14.3728932 C10.3317821,14.2540043 10.4503006,14.1354858 10.570671,14.0151154 L11.198243,13.3875434 C11.2867204,13.2990661 11.3776669,13.2081196 11.471741,13.1140455 L11.9184076,12.6673788 C12.0233459,12.5624405 12.1323994,12.453387 12.2462266,12.3395599 L12.6026875,11.983099 L12.7928932,11.7928932 C12.8600975,11.7256889 12.9251339,11.6606525 12.9880864,11.5977 L13.5006573,11.0851291 C13.6030652,10.9827212 13.6981442,10.8876422 13.7865658,10.7992206 L14.0325294,10.5532571 C14.1083073,10.4774792 14.178099,10.4076874 14.242576,10.3432104 L14.6369904,9.94879601 C14.6580399,9.92774659 14.6781802,9.90760628 14.6974953,9.88829116 L14.8950382,9.69074828 C14.9231507,9.66263576 14.9493051,9.63648133 14.9741728,9.61161364 L15.2167796,9.36900681 C15.2408641,9.34492236 15.2660115,9.31977494 15.2928932,9.29289322 Z" id="&#36335;&#24452;" fill-rule="nonzero" />
    </g>
</svg>

<svg xmlns="http://www.w3.org/2000/svg" viewBox="0 0 32 32"><path fill="currentColor" d="M15.293 9.293a1 1 0 0 1 1.414 0l10 10a1 1 0 0 1-1.414 1.414l-9.294-9.293-.014.015-.328.328-.21.21-.246.246-.286.286-.513.513-.195.195-.19.19-.357.357-.327.328-.447.446-.274.274-.627.627-.358.358-.36.36-.123.123-.518.518-.282.283-.806.805-.996.997-1.536 1.535-.299.3a1 1 0 1 1-1.414-1.415l.858-.858.976-.977.997-.996.805-.806.283-.282.518-.518.123-.123.36-.36.358-.358.627-.627.274-.274.446-.447.328-.327.357-.357.19-.19.195-.195.513-.513.286-.286.246-.246.21-.21.394-.394.06-.06.198-.198.08-.08.242-.242z"/></svg>
